themes/vice/icons/64x64/bluetooth.svg

<svg xmlns="http://www.w3.org/2000/svg" width="64" height="64" version="1">
    <rect style="fill:#324090" width="56" height="40" x="-60" y="-52" rx="22" ry="20" transform="matrix(0 -1 -1 0 0 0)"/>
    <path style="opacity:.1;fill:#fff" d="M32 4c-11.08 0-20 9.812-20 22v1c0-12.188 8.92-22 20-22s20 9.812 20 22v-1c0-12.188-8.92-22-20-22z"/>
    <path style="fill:none;stroke:#fff;stroke-width:2;stroke-linecap:square" d="m22 23 18 18-9 8.5v-35l9 8.5-18 16"/>
    <path style="opacity:.2" d="M12 38v1c0 12.188 8.92 22 20 22s20-9.812 20-22v-1c0 12.188-8.92 22-20 22s-20-9.812-20-22z"/>
</svg>

<svg xmlns="http://www.w3.org/2000/svg" width="64" height="64" version="1">
 <rect style="fill:#324090" width="56" height="40" x="-60" y="-52" rx="22" ry="20" transform="matrix(0,-1,-1,0,0,0)"/>
 <path style="opacity:0.1;fill:#ffffff" d="M 32 4 C 20.92 4 12 13.812 12 26 L 12 27 C 12 14.812 20.92 5 32 5 C 43.08 5 52 14.812 52 27 L 52 26 C 52 13.812 43.08 4 32 4 z"/>
 <path style="fill:none;stroke:#ffffff;stroke-width:2;stroke-linecap:square" d="m 22,23 18,18 -9,8.5 0,-35 9,8.5 -18,16"/>
 <path style="opacity:0.2" d="m 12,38 0,1 c 0,12.188 8.92,22 20,22 11.08,0 20,-9.812 20,-22 l 0,-1 C 52,50.188 43.08,60 32,60 20.92,60 12,50.188 12,38 Z"/>
</svg>
